svgs/thin/circle-z.svg

<svg xmlns="http://www.w3.org/2000/svg" viewBox="0 0 512 512"><!--! Font Awesome Pro 6.3.0 by @fontawesome - https://fontawesome.com License - https://fontawesome.com/license (Commercial License) Copyright 2023 Fonticons, Inc. --><path d="M360 368H169.5l196.5-226.8c2.062-2.359 2.562-5.703 1.25-8.562C365.1 129.8 363.1 128 360 128h-208C147.6 128 144 131.6 144 136S147.6 144 152 144h190.5l-196.5 226.8c-2.062 2.359-2.562 5.703-1.25 8.562C146 382.2 148.9 384 152 384h208c4.406 0 8-3.578 8-8S364.4 368 360 368zM256 0C114.6 0 0 114.6 0 256s114.6 256 256 256s256-114.6 256-256S397.4 0 256 0zM256 496c-132.3 0-240-107.7-240-240S123.7 16 256 16s240 107.7 240 240S388.3 496 256 496z"/></svg>

<svg xmlns="http://www.w3.org/2000/svg" viewBox="0 0 512 512"><!-- Font Awesome Pro 6.0.0-alpha2 by @fontawesome - https://fontawesome.com License - https://fontawesome.com/license (Commercial License) --><path d="M360 368H169.531L366.031 141.234C368.094 138.875 368.594 135.531 367.281 132.672C365.969 129.828 363.125 128 360 128H152C147.594 128 144 131.578 144 136S147.594 144 152 144H342.469L145.969 370.766C143.906 373.125 143.406 376.469 144.719 379.328C146.031 382.172 148.875 384 152 384H360C364.406 384 368 380.422 368 376S364.406 368 360 368ZM256 16C123.451 16 16 123.451 16 256S123.451 496 256 496S496 388.549 496 256S388.549 16 256 16ZM256 480C132.486 480 32 379.514 32 256S132.486 32 256 32S480 132.486 480 256S379.514 480 256 480Z"/></svg>
